X:1
T:Title
%%score { ( 1 4 ) | ( 2 3 ) }
L:1/8
Q:1/4=100
M:4/4
K:F
V:1 treble nm="Grand Piano"
V:4 treble 
V:2 bass 
V:3 bass 
V:1
 A3 A B2 .A2 | c3 c d2 .c2 | [GB]3 [FA] [EG]FED | [Ec]2 [F=B]2 [G_B]4 | A3 A B2 A2 | %5
w: M.~A.~Sea * * *|||||
 c3 c [^Fd]2 [Fc]2 | c3 B z BAG | F2 E2 F4 |] %8
w: |||
V:2
 [F,C]3 [F,C] [F,D]2 .[F,C]2 | [F,A,F]3 [F,A,F] [F,B,F]2 .[F,A,F]2 | [C,C]3 [C,C] z DG,-[=B,,G,] | %3
 [C,G,]2 [D,G,]2 [E,C]4 | [F,CF]3 [F,CF] [F,DF]2 [F,CF]2 | [F,A,F]3 [F,A,F] [D,A,]2 [D,D]2 | %6
 z4[K:bass] z2 .C2 | [C,A,C]2 [C,B,C]2 [F,A,C]4 |] %8
V:3
 x8 | x8 | z4 [C,C]2 .[C,C]2 | x8 | x8 | x8 | [G,DG]3 [G,D][K:bass] [G,B,]2 [G,D]-[G,B,D] | x8 |] %8
V:4
 x8 | x8 | x8 | x8 | x8 | x8 | z4 D2 z2 | x8 |] %8

